!!!!SEGMENT: pl-sa--481-a-viii-121--030_anonim--mazur.krn
!!!cenid: 18xx:401
!!!COM: Anonim
!!!COM-rismid: pe30004985
!!!CDT:
!!!CNT:
!!!OTL: Mazur
!!!PDT:
!!!AGN: Secular; Mazurka
!!!SMS-siglum: PL-SA
!!!SMS-shelfmark: 481/A VIII 121
!!!SMS-shelfwork: 030 W
!!!SMS-variant:
!!!SMS-altvar:
!!!NIFC-rismid: 1001070697
!!!URL-scan: http://bc.bdsandomierz.pl/dlibra/publication/1212/edition/1171/content
!!!ONB-nifc: Str. 22, s. 2
!!!AIN: 1 piano
!!!key:
**kern	**kern
*part1	*part1
*staff2	*staff1
*Ipiano	*Iempty
*I"Piano	*
*I'P-no	*
*clefF4	*clefG2
*k[]	*k[]
*C:	*C:
*M3/8	*M3/8
*>[A,B,B]	*>[A,B,B]
=1	=1
*>A	*>A
!	!LO:TX:a:t=Mazur
!LO:TX:a:t=P:problem=błędnie wpisane metrum 3/4	!LO:TX:a:t=P:problem=błędnie wpisane metrum 3/4
.	16qqff#X/
8G\L	4gg\
8e 8c\	.
8eJ 8c\	8ggT\
=2	=2
8G\L	16gg\LL
.	16aa\J
8f 8d\	8ff\
8fJ 8d\	8dd\J
=3	=3
8G\L	16cc\LL
.	16ee\J
8e 8c\	8gg\
8eJ 8c\	8gg\J
=4	=4
8G\L	16gg\LL
.	16aa\J
8f 8d\	8ff\
8fJ 8d\	8dd\J
=5	=5
!	!LO:N:vis=8
8G\L	16cc\LL
!	!LO:N:vis=8
.	16ee\JJ
!	!LO:N:vis=4
8e 8c\	8gg\
8eJ 8c\	8ggT\
=6	=6
8G\L	16gg\LL
.	16aa\J
8f 8d\	8ff\
8fJ 8d\	8dd\J
=7	=7
8G\L	16cc\LL
.	16ee\J
8e 8c\	8gg\
8eJ 8c\	8gg\J
=8	=8
4.ryy	16gg\LL
.	16aa\J
.	8ff\
.	8dd\J
=9!|:	=9!|:
*>B	*>B
8G\L	16g\LL
.	16b\J
8f 8d\	8dd\
8fJ 8d\	8dd\J
=10	=10
8G\L	16ddLL 16b\
.	16cc\J
8e 8c\	8ee 8cc\
8eJ 8c\	8eeJ 8cc\
=11	=11
8G\L	4ff 4ddT\
8f 8d\	.
8fJ 8d\	8ff 8dd\
=12	=12
8eL 8c 8G\	16ee\LL
.	16cc\
8fJ 8d 8G\	16b\
.	16dd\JJ
!LO:TX:a:t=P:problem=skreślona kreska taktowa	!LO:TX:a:t=P:problem=skreślona kreska taktowa
8e 8c 8G\	8cc\
=:|!;;	=:|!;;
*-	*-
!!!system-decoration: s1,s2
!!!ENC: Marta Lawrence
!!!END: 2020-11-22
!!!ENC: Anastazja Marusiak
!!!END: 2020-06-14
